X:1
T:Diademata, SMD
T:Diademata, SMD
T:George Job Elvey, 1868
T:Public Domain Courtesy of the Cyber Hymnal™
C:George Job Elvey, 1868
Z:Public Domain
Z:Courtesy of the Cyber Hymnal™
%%score ( 1 2 ) ( 3 4 )
L:1/8
Q:1/4=115
M:4/4
K:Eb
V:1 treble 
V:2 treble 
V:3 bass 
V:4 bass 
V:1
 [B,E]2 [B,E][B,E] [EG]2 [EG]2 | [Ec]6 [Ec]2 | [EB]2 E2 [DA]2 [EG]2 | [DF]6 [DF]2 | %4
 [EG]2 [FB]2 [Ec]2 [EB]2 | [C=A]2 (GF) [FB]2 [Ee]2 | [Fd]2 [Ge]2 [Cc]2 [Fc]2 | [DB]6 [DB]2 | %8
 [EB]2 [EG]2 [DF]2 E2 | [Ec]6 [=Ec]2 | [Fc]2 [F=A]2 [EG]2 F2 | [Fd]6 [Fd]2 | %12
 [Ee]3 [Ed] [Ec]2 [EB]2 | [EA]2 [DF]2 [EG]2 [EB]2 | [EA]2 [EG]2 [EF]2 [DF]2 x | E8 |] %16
V:2
 x8 | x8 | x2 E2 x4 | x8 | x8 | x2 C2 x4 | x8 | x8 | x6 E2 | x8 | x6 F2 | x8 | x8 | x8 | x9 | E8 |] %16
V:3
 [E,G,]2 [E,G,][E,G,] [C,G,]2 [C,G,]2 | [A,,A,]6 A,2 | [G,B,]2 [A,C]2 [F,A,]2 [E,B,]2 | %3
 [B,,B,]6 [B,,B,]2 | [E,B,]2 [D,B,]2 [C,G,]2 [E,G,]2 | [F,=A,]2 [E,A,]2 [D,B,]2 [C,A,]2 | %6
 [B,,B,]2 [E,B,]2 [F,B,]2 [F,=A,]2 | [B,,B,]6 [A,B,]2 | [G,B,]2 [E,B,]2 [F,A,]2 [G,B,]2 | %9
 [A,C]6 [G,B,]2 | [F,=A,]2 [F,C]2 [G,B,]2 [A,C]2 | B,6 [A,B,]2 | [G,B,]3 [G,B,] A,2 [G,B,]2 | %13
 [F,C]2 B,2 [E,B,]2 [G,,B,]2 | [A,,C]2 [E,B,]2 B,3 z A, | [E,G,]8 |] %16
V:4
 x8 | x6 A,2 | x8 | x8 | x8 | x8 | x8 | x8 | x8 | x8 | x8 | B,6 x2 | x4 A,2 x2 | x2 B,2 x4 | %14
 x4 B,,2 B,,2 x | x8 |] %16

